icons/hpx.svg

<!--
  - The MIT License (MIT)
  -
  - Copyright (c) 2015-2024 Elior "Mallowigi" Boukhobza
  -
  - Permission is hereby granted, free of charge, to any person obtaining a copy
  - of this software and associated documentation files (the "Software"), to deal
  - in the Software without restriction, including without limitation the rights
  - to use, copy, modify, merge, publish, distribute, sublicense, and/or sell
  - copies of the Software, and to permit persons to whom the Software is
  - furnished to do so, subject to the following conditions:
  -
  - The above copyright notice and this permission notice shall be included in all
  - copies or substantial portions of the Software.
  -
  - THE SOFTWARE IS PROVIDED "AS IS", WITHOUT WARRANTY OF ANY KIND, EXPRESS OR
  - IMPLIED, INCLUDING BUT NOT LIMITED TO THE WARRANTIES OF MERCHANTABILITY,
  - FITNESS FOR A PARTICULAR PURPOSE AND NONINFRINGEMENT. IN NO EVENT SHALL THE
  - AUTHORS OR COPYRIGHT HOLDERS BE LIABLE FOR ANY CLAIM, DAMAGES OR OTHER
  - LIABILITY, WHETHER IN AN ACTION OF CONTRACT, TORT OR OTHERWISE, ARISING FROM,
  - OUT OF OR IN CONNECTION WITH THE SOFTWARE OR THE USE OR OTHER DEALINGS IN THE
  - SOFTWARE.
  -
  -->

<svg  width="16px" height="16px" viewBox="0 0 224 224" fill="none" xmlns="http://www.w3.org/2000/svg">
  <g fill="#F9A825" data-iconColor="HappyX">
    <path
        d="M31.8961 155.538C30.4881 155.538 29.3041 155.09 28.3441 154.194C27.4481 153.234 27.0001 152.05 27.0001 150.642V104.562C27.0001 103.09 27.4481 101.906 28.3441 101.01C29.3041 100.114 30.4881 99.6665 31.8961 99.6665C33.3681 99.6665 34.5521 100.114 35.4481 101.01C36.3441 101.906 36.7921 103.09 36.7921 104.562V150.642C36.7921 152.05 36.3441 153.234 35.4481 154.194C34.5521 155.09 33.3681 155.538 31.8961 155.538ZM71.3521 174.738C69.9441 174.738 68.7601 174.29 67.8001 173.394C66.9041 172.434 66.4561 171.25 66.4561 169.842V146.226C66.4561 142.578 65.7841 139.602 64.4401 137.298C63.0961 134.994 61.2721 133.298 58.9681 132.21C56.7281 131.058 54.1361 130.482 51.1921 130.482C48.5041 130.482 46.0721 131.026 43.8961 132.114C41.7201 133.202 39.9921 134.674 38.7121 136.53C37.4321 138.322 36.7921 140.402 36.7921 142.77H30.7441C30.7441 138.738 31.7041 135.154 33.6241 132.018C35.6081 128.818 38.2961 126.29 41.6881 124.434C45.0801 122.578 48.8881 121.65 53.1121 121.65C57.5281 121.65 61.4641 122.61 64.9201 124.53C68.4401 126.386 71.1921 129.138 73.1761 132.786C75.2241 136.434 76.2481 140.914 76.2481 146.226V169.842C76.2481 171.25 75.7681 172.434 74.8081 173.394C73.9121 174.29 72.7601 174.738 71.3521 174.738ZM31.8961 174.738C30.4881 174.738 29.3041 174.29 28.3441 173.394C27.4481 172.434 27.0001 171.25 27.0001 169.842V127.026C27.0001 125.554 27.4481 124.37 28.3441 123.474C29.3041 122.578 30.4881 122.13 31.8961 122.13C33.3681 122.13 34.5521 122.578 35.4481 123.474C36.3441 124.37 36.7921 125.554 36.7921 127.026V169.842C36.7921 171.25 36.3441 172.434 35.4481 173.394C34.5521 174.29 33.3681 174.738 31.8961 174.738ZM97.4274 197.106C96.0194 197.106 94.8354 196.626 93.8754 195.666C92.9794 194.77 92.5314 193.618 92.5314 192.21V148.434C92.5954 143.378 93.7794 138.834 96.0834 134.802C98.3874 130.77 101.523 127.602 105.491 125.298C109.459 122.93 113.939 121.746 118.931 121.746C123.987 121.746 128.499 122.93 132.467 125.298C136.435 127.602 139.571 130.77 141.875 134.802C144.243 138.834 145.427 143.378 145.427 148.434C145.427 153.49 144.339 158.034 142.163 162.066C140.051 166.034 137.139 169.202 133.427 171.57C129.715 173.874 125.523 175.026 120.851 175.026C117.075 175.026 113.587 174.258 110.387 172.722C107.251 171.122 104.563 168.978 102.323 166.29V192.21C102.323 193.618 101.875 194.77 100.979 195.666C100.083 196.626 98.8994 197.106 97.4274 197.106ZM118.931 166.386C122.195 166.386 125.107 165.618 127.667 164.082C130.227 162.482 132.243 160.338 133.715 157.65C135.251 154.898 136.019 151.826 136.019 148.434C136.019 144.978 135.251 141.906 133.715 139.218C132.243 136.466 130.227 134.322 127.667 132.786C125.107 131.186 122.195 130.386 118.931 130.386C115.731 130.386 112.819 131.186 110.195 132.786C107.635 134.322 105.619 136.466 104.147 139.218C102.675 141.906 101.939 144.978 101.939 148.434C101.939 151.826 102.675 154.898 104.147 157.65C105.619 160.338 107.635 162.482 110.195 164.082C112.819 165.618 115.731 166.386 118.931 166.386ZM192.114 174.642C191.474 174.642 190.866 174.546 190.29 174.354C189.714 174.162 189.17 173.746 188.658 173.106L171.858 152.946L168.402 149.49L151.698 129.714C150.866 128.69 150.418 127.602 150.354 126.45C150.29 125.234 150.61 124.21 151.314 123.378C152.018 122.546 153.074 122.13 154.482 122.13C156.018 122.13 157.234 122.674 158.13 123.762L174.546 143.346L177.042 145.65L195.09 167.25C196.05 168.402 196.498 169.554 196.434 170.706C196.434 171.794 196.018 172.722 195.186 173.49C194.418 174.258 193.394 174.642 192.114 174.642ZM155.442 174.642C154.162 174.642 153.138 174.258 152.37 173.49C151.666 172.658 151.314 171.666 151.314 170.514C151.314 169.362 151.762 168.21 152.658 167.058L168.978 146.61L174.162 153.906L158.898 173.106C157.938 174.13 156.786 174.642 155.442 174.642ZM179.154 149.97L172.53 144.306L187.986 123.762C188.498 123.122 189.042 122.706 189.618 122.514C190.194 122.258 190.834 122.13 191.538 122.13C192.946 122.13 194.002 122.578 194.706 123.474C195.41 124.306 195.73 125.33 195.666 126.546C195.666 127.762 195.218 128.946 194.322 130.098L179.154 149.97Z"
    />
    <path
        d="M112.43 26C112.43 26 108.222 29.5853 103.922 33.1088C99.4978 32.9678 90.8353 34.0197 86.1431 35.8484C81.7947 32.9094 77.9997 29.6713 77.9997 29.6713C77.9997 29.6713 74.7409 35.6525 72.7197 39.1622C69.6775 40.8947 66.6319 42.83 63.93 45.3909C60.7778 44.0675 57.1237 42.4175 57 42.3831C61.1697 51.3894 63.9816 60.4094 71.6266 65.8372C83.785 45.2809 140.291 47.1819 152.714 65.7272C160.733 61.255 163.848 51.6197 167 42.7234C166.66 42.8472 162.363 44.3872 159.589 45.5147C157.925 43.5794 154.003 40.6094 151.782 39.1759C150.094 35.9034 148.362 32.6619 146.588 29.4375C146.588 29.4375 142.955 32.3388 138.727 35.5116C133.034 34.3841 126.142 33.0228 120.339 33.3631C117.655 30.9603 115.022 28.5059 112.43 26ZM61.3141 61.5197L71.3619 87.5175C88.7831 112.12 133.275 113.821 152.662 88.0022C157.244 76.9369 163.442 61.3788 163.442 61.3788C158.465 69.2747 150.369 74.7163 145.375 77.6347C141.831 79.7109 133.67 80.9863 133.67 80.9863L112.182 69.0788L90.6084 80.7353C90.6084 80.7353 82.5337 79.3569 78.8797 77.5316C71.5062 73.3241 66.5459 68.3466 61.3175 61.5231L61.3141 61.5197Z"
    />
  </g>
</svg>

<svg xmlns="http://www.w3.org/2000/svg" fill="none" viewBox="0 0 224 224"><path fill="#f9a825" d="M31.896 155.538q-2.112 0-3.552-1.344Q27 152.754 27 150.642v-46.08q0-2.208 1.344-3.552 1.44-1.344 3.552-1.344 2.208 0 3.552 1.344t1.344 3.552v46.08q0 2.112-1.344 3.552-1.344 1.344-3.552 1.344m39.456 19.2q-2.112 0-3.552-1.344-1.344-1.44-1.344-3.552v-23.616q0-5.472-2.016-8.928t-5.472-5.088q-3.36-1.728-7.776-1.728-4.032 0-7.296 1.632t-5.184 4.416q-1.92 2.688-1.92 6.24h-6.048q0-6.048 2.88-10.752 2.976-4.8 8.064-7.584t11.424-2.784q6.624 0 11.808 2.88 5.28 2.784 8.256 8.256 3.072 5.472 3.072 13.44v23.616q0 2.112-1.44 3.552-1.344 1.344-3.456 1.344m-39.456 0q-2.112 0-3.552-1.344Q27 171.954 27 169.842v-42.816q0-2.208 1.344-3.552 1.44-1.344 3.552-1.344 2.208 0 3.552 1.344t1.344 3.552v42.816q0 2.112-1.344 3.552-1.344 1.344-3.552 1.344m65.531 22.368q-2.112 0-3.552-1.44-1.344-1.344-1.344-3.456v-43.776q.096-7.584 3.552-13.632t9.408-9.504q5.952-3.552 13.44-3.552 7.584 0 13.536 3.552 5.952 3.456 9.408 9.504 3.552 6.048 3.552 13.632t-3.264 13.632q-3.168 5.952-8.736 9.504-5.568 3.456-12.576 3.456-5.664 0-10.464-2.304a25.4 25.4 0 0 1-8.064-6.432v25.92q0 2.112-1.344 3.456-1.344 1.44-3.552 1.44m21.504-30.72q4.896 0 8.736-2.304 3.84-2.4 6.048-6.432 2.304-4.128 2.304-9.216 0-5.184-2.304-9.216-2.208-4.128-6.048-6.432-3.84-2.4-8.736-2.4-4.8 0-8.736 2.4-3.84 2.304-6.048 6.432-2.208 4.032-2.208 9.216 0 5.088 2.208 9.216 2.208 4.032 6.048 6.432 3.936 2.304 8.736 2.304m73.183 8.256a5.7 5.7 0 0 1-1.824-.288q-.864-.288-1.632-1.248l-16.8-20.16-3.456-3.456-16.704-19.776q-1.248-1.536-1.344-3.264-.096-1.824.96-3.072t3.168-1.248q2.304 0 3.648 1.632l16.416 19.584 2.496 2.304 18.048 21.6q1.44 1.728 1.344 3.456 0 1.632-1.248 2.784-1.152 1.152-3.072 1.152m-36.672 0q-1.92 0-3.072-1.152-1.056-1.248-1.056-2.976t1.344-3.456l16.32-20.448 5.184 7.296-15.264 19.2q-1.44 1.536-3.456 1.536m23.712-24.672-6.624-5.664 15.456-20.544q.768-.96 1.632-1.248a4.7 4.7 0 0 1 1.92-.384q2.112 0 3.168 1.344 1.056 1.248.96 3.072 0 1.824-1.344 3.552zM112.43 26s-4.208 3.585-8.508 7.109c-4.424-.141-13.087.91-17.779 2.74C81.795 32.908 78 29.67 78 29.67s-3.26 5.982-5.28 9.491c-3.043 1.733-6.088 3.668-8.79 6.229-3.152-1.323-6.806-2.974-6.93-3.008 4.17 9.006 6.982 18.026 14.627 23.454 12.158-20.556 68.664-18.655 81.087-.11 8.019-4.472 11.134-14.107 14.286-23.004-.34.124-4.637 1.664-7.411 2.792-1.664-1.936-5.586-4.906-7.807-6.34a412 412 0 0 0-5.194-9.737s-3.633 2.9-7.861 6.074c-5.693-1.128-12.585-2.49-18.388-2.149A282 282 0 0 1 112.43 26M61.314 61.52l10.048 25.997c17.421 24.603 61.913 26.304 81.3.485 4.582-11.065 10.78-26.623 10.78-26.623-4.977 7.896-13.073 13.337-18.067 16.256-3.544 2.076-11.705 3.351-11.705 3.351L112.182 69.08 90.608 80.735s-8.074-1.378-11.728-3.203c-7.374-4.208-12.334-9.185-17.562-16.009z" data-iconColor="HappyX"/></svg>
